Newaita-dark/actions/24/gnumeric-format-valign-top.svg

<svg height="24" viewBox="0 0 24 24" width="24" xmlns="http://www.w3.org/2000/svg"><g fill="#e0e0e0"><path d="m12.898438 9.128906h-1.984376v12.394532c0 .273437.222657.496093.496094.496093h.992188c.277344 0 .496094-.222656.496094-.496093zm0 0"/><path d="m8.433594 10.121094h6.945312l-3.472656-4.960938zm0 0"/><path d="m2.480469 4.167969h18.855469c.273437 0 .496093-.222657.496093-.496094v-.992187c0-.273438-.222656-.496094-.496093-.496094h-18.855469c-.273438 0-.496094.222656-.496094.496094v.992187c0 .273437.222656.496094.496094.496094zm0 0"/></g></svg>

<svg xmlns="http://www.w3.org/2000/svg" xmlns:xlink="http://www.w3.org/1999/xlink" width="24px" height="24px" viewBox="0 0 24 24" version="1.1">
<g id="surface1">
     <defs>
  <style id="current-color-scheme" type="text/css">
   .ColorScheme-Text { color:#eeeeee; } .ColorScheme-Highlight { color:#424242; }
  </style>
 </defs>
<path style="fill:currentColor" class="ColorScheme-Text" d="M 12.898438 9.128906 L 10.914062 9.128906 L 10.914062 21.523438 C 10.914062 21.796875 11.136719 22.019531 11.410156 22.019531 L 12.402344 22.019531 C 12.679688 22.019531 12.898438 21.796875 12.898438 21.523438 Z M 12.898438 9.128906 "/>
     <defs>
  <style id="current-color-scheme" type="text/css">
   .ColorScheme-Text { color:#eeeeee; } .ColorScheme-Highlight { color:#424242; }
  </style>
 </defs>
<path style="fill:currentColor" class="ColorScheme-Text" d="M 8.433594 10.121094 L 15.378906 10.121094 L 11.90625 5.160156 Z M 8.433594 10.121094 "/>
     <defs>
  <style id="current-color-scheme" type="text/css">
   .ColorScheme-Text { color:#eeeeee; } .ColorScheme-Highlight { color:#424242; }
  </style>
 </defs>
<path style="fill:currentColor" class="ColorScheme-Text" d="M 2.480469 4.167969 L 21.335938 4.167969 C 21.609375 4.167969 21.832031 3.945312 21.832031 3.671875 L 21.832031 2.679688 C 21.832031 2.40625 21.609375 2.183594 21.335938 2.183594 L 2.480469 2.183594 C 2.207031 2.183594 1.984375 2.40625 1.984375 2.679688 L 1.984375 3.671875 C 1.984375 3.945312 2.207031 4.167969 2.480469 4.167969 Z M 2.480469 4.167969 "/>
</g>
</svg>
